ui/client/assets/img/toolbarButtons/archive.svg

<svg xmlns="http://www.w3.org/2000/svg" viewBox="0 0 36 36"><g data-name="Layer 2"><path d="M9.82 9.06h16.36c.56 0 .76 2.3.76 2.3H9.06s.2-2.3.76-2.3zm6.65-2.56h3.06a1.81 1.81 0 011 1 1.81 1.81 0 01-1 1h-3.06a1.81 1.81 0 01-1-1 1.81 1.81 0 011-1zm-5.11 5.62h13.28a1 1 0 011 1l-1 15.34a1 1 0 01-1 1H12.38a1 1 0 01-1-1l-1-15.34a1 1 0 01.98-1zm1.53 2.05l.25 13.29h1.79l-.25-13.29zm4.09 0v13.29h2V14.17zm4.34 0l-.25 13.29h1.79l.25-13.29z" fill="#b3b3b3" data-name="aplikacja główna"/></g></svg>

<svg xmlns="http://www.w3.org/2000/svg" viewBox="0 0 36 36"><defs><style>.cls-1{fill:none;}.cls-2{fill:#b3b3b3;}</style></defs><title>archive</title><g id="Layer_2" data-name="Layer 2"><g id="aplikacja_główna" data-name="aplikacja główna"><rect class="cls-1" width="36" height="36"/><path class="cls-2" d="M9.82,9.06H26.18c.56,0,.76,2.3.76,2.3H9.06S9.26,9.06,9.82,9.06ZM16.47,6.5h3.06a1.81,1.81,0,0,1,1,1,1.81,1.81,0,0,1-1,1H16.47a1.81,1.81,0,0,1-1-1A1.81,1.81,0,0,1,16.47,6.5Zm-5.11,5.62H24.64a1,1,0,0,1,1,1l-1,15.34a1,1,0,0,1-1,1H12.38a1,1,0,0,1-1-1l-1-15.34A1,1,0,0,1,11.36,12.12Zm1.53,2.05.25,13.29h1.79l-.25-13.29Zm4.09,0V27.46h2V14.17Zm4.34,0-.25,13.29h1.79l.25-13.29Z"/></g></g></svg>
